X: 38393
T: Star Of Munster, The
R: reel
M: 4/4
K: Aminor
cBA c/B/AG|AEF GED|EAA ABd|eaa ged|
cBA c/B/AG|AEF GED|EAA ABd|edB AAA:|
eaa age|a/a/aa age|g/g/gg ged|bag a/g/ed|
eaa age|a/a/aa age|g/g/gg g/a/aa|aba ged|
eaa aee|c'ba aee|g/g/gg ged|bag {a}ged|
eaa aee|c'ba aee|g/g/gg g/a/aa|aba ged||

